images/icon-why-us-3.svg

<svg width="47" height="48" viewBox="0 0 47 48" fill="none" xmlns="http://www.w3.org/2000/svg">
<g clip-path="url(#clip0_107_968)">
<path fill-rule="evenodd" clip-rule="evenodd" d="M21.205 2.47168C15.6991 3.44638 11.3544 7.82747 10.4194 13.3478C10.3205 13.931 10.2653 14.7511 10.2677 15.5968C10.274 17.7759 10.6488 19.3797 11.6119 21.3492C13.4446 25.0965 16.7661 27.6635 20.9296 28.55C21.7181 28.718 22.1856 28.7552 23.4999 28.7552C25.2418 28.7552 26.3004 28.5938 27.7226 28.1111C32.3284 26.548 35.7233 22.5653 36.5892 17.7093C36.7825 16.6257 36.7788 14.5028 36.5817 13.3478C35.7536 8.49695 32.2706 4.4466 27.6182 2.92433C25.6776 2.28937 23.2162 2.11569 21.205 2.47168ZM21.5205 3.80631C16.6365 4.62734 12.662 8.577 11.7888 13.4772C11.5845 14.6237 11.6031 16.6101 11.8289 17.754C12.7832 22.5881 16.3972 26.2021 21.2968 27.2217C22.3826 27.4477 24.6364 27.4488 25.703 27.2239C29.5047 26.4222 32.5003 24.1245 34.2193 20.6915C34.5523 20.0265 34.9866 18.6872 35.172 17.754C35.3988 16.6115 35.4171 14.6283 35.2114 13.4772C34.5696 9.88584 32.2623 6.73619 29.0039 5.0039C28.0178 4.47955 26.5473 3.98669 25.4276 3.8053C24.3754 3.63474 22.5381 3.6352 21.5205 3.80631ZM21.8476 5.54761C20.5123 5.75718 18.3103 6.65468 17.8773 7.1658C17.5179 7.59009 17.8092 8.25305 18.3552 8.25305C18.5045 8.25305 18.8382 8.12829 19.0969 7.97582C23.0945 5.61866 28.3247 6.88463 30.8604 10.8234C32.5914 13.5119 32.6891 17.0376 31.1101 19.8241C30.6773 20.588 30.6612 20.939 31.0457 21.2249C31.2486 21.3756 31.3487 21.3935 31.5965 21.3232C31.8441 21.253 31.9706 21.1123 32.2908 20.5513C33.1567 19.0342 33.5976 17.3543 33.5976 15.5715C33.5976 12.8545 32.6675 10.5069 30.8208 8.56277C28.5107 6.13089 25.206 5.02051 21.8476 5.54761ZM23.0409 8.80383C22.902 8.94272 22.8573 9.10979 22.8573 9.49056C22.8573 9.9635 22.8422 9.99737 22.6049 10.0544C21.4755 10.3258 20.659 11.3826 20.5819 12.6724C20.51 13.8755 20.9674 14.5713 22.293 15.2755L22.8114 15.5509L22.8361 17.6054L22.8609 19.6599L22.4689 19.5975C22.2534 19.5632 21.8608 19.4132 21.5965 19.2642C21.3322 19.1152 21.012 18.9933 20.8851 18.9933C20.3374 18.9933 20.0761 19.7743 20.4935 20.1638C20.82 20.4684 21.6192 20.8316 22.2408 20.958L22.8114 21.074L22.8389 21.5911C22.8616 22.0199 22.9068 22.14 23.1037 22.2948C23.4102 22.536 23.6162 22.5307 23.9145 22.274C24.1119 22.1042 24.1653 21.962 24.2078 21.4937C24.2489 21.0415 24.2919 20.921 24.4126 20.921C24.74 20.921 25.5346 20.4253 25.9688 19.9502C26.5829 19.2783 26.8348 18.6161 26.8393 17.6622C26.8434 16.7904 26.6511 16.2835 26.0821 15.6662C25.7244 15.2782 25.0028 14.8518 24.483 14.7213L24.2343 14.6589V13.0166C24.2343 12.1132 24.2619 11.3741 24.2957 11.3741C24.3295 11.3741 24.5767 11.4981 24.8451 11.6495C25.1135 11.801 25.4297 11.9249 25.548 11.9249C25.8769 11.9249 26.181 11.5467 26.1457 11.1815C26.1072 10.7853 25.5261 10.3309 24.7761 10.1104C24.2659 9.96047 24.2345 9.93476 24.2344 9.66663C24.2342 9.26355 24.0605 8.81558 23.8635 8.7101C23.5935 8.56561 23.2387 8.606 23.0409 8.80383ZM15.3224 9.56115C14.5833 10.5763 14.0299 11.751 13.6546 13.1011C13.4869 13.7046 13.4584 14.0527 13.4581 15.505C13.4579 17.0521 13.4793 17.2826 13.6991 18.0942C14.1744 19.8493 15.0837 21.4118 16.3874 22.7134C19.6327 25.9539 24.7085 26.5898 28.6548 24.2505C29.8511 23.5412 30.123 23.1578 29.7679 22.6801C29.4625 22.2691 29.1177 22.3071 28.3045 22.8409C26.2218 24.2082 23.7858 24.6126 21.3417 23.9969C18.3325 23.2387 16.0328 21.0049 15.0829 17.9176C14.8557 17.1792 14.8345 16.9803 14.8309 15.5509C14.8275 14.1933 14.8542 13.8961 15.0359 13.2656C15.3021 12.3426 15.7502 11.3728 16.2518 10.6341C16.4837 10.2927 16.6457 9.94835 16.6457 9.79725C16.6457 9.41574 16.3774 9.17101 15.9589 9.17101C15.6501 9.17101 15.5714 9.21921 15.3224 9.56115ZM22.4455 11.665C22.3064 11.7744 22.1355 12.0003 22.0659 12.1669C21.9183 12.5201 21.8999 13.1484 22.03 13.3915C22.1136 13.5477 22.6656 13.9445 22.7993 13.9445C22.8312 13.9445 22.8573 13.3868 22.8573 12.7052C22.8573 12.0236 22.8216 11.4659 22.7779 11.4659C22.7342 11.4659 22.5847 11.5555 22.4455 11.665ZM24.2343 17.8512C24.2343 19.1875 24.2591 19.5409 24.349 19.49C25.0868 19.0731 25.4617 18.4753 25.467 17.7078C25.4696 17.3374 25.4145 17.1119 25.2608 16.8632C25.0599 16.5381 24.5564 16.1476 24.3382 16.1476C24.2646 16.1476 24.2343 16.6443 24.2343 17.8512ZM1.37464 25.6517C0.883164 25.8032 0.404535 26.2402 0.171646 26.7501C0.0132049 27.0969 0.00384163 27.5736 0.00246468 35.3331C0.00145491 40.7891 0.0333084 43.6654 0.0971991 43.8957C0.217728 44.3299 0.655783 44.8362 1.11201 45.069C1.4266 45.2295 1.66298 45.2472 3.48744 45.2472C5.6924 45.2472 5.94338 45.2022 6.4568 44.7145C6.86391 44.3277 7.00189 43.9754 7.06018 43.1734L7.11415 42.4307L10.9921 44.1649C15.0666 45.9871 15.5695 46.1607 16.7807 46.1636C17.1494 46.1644 20.0203 45.9157 23.1606 45.6108C34.2646 44.5327 33.6897 44.6115 34.8825 44.0052C35.2108 43.8384 37.8747 42.137 40.8023 40.2245C46.4861 36.5114 46.6072 36.4174 46.8427 35.5359C46.9359 35.1873 46.9617 35.8131 47.0013 39.3801C47.034 42.3339 47.0486 41.0786 47.0487 35.2872C47.0489 30.1139 47.0303 28.3141 46.9999 30.5597C46.9729 32.554 46.9408 34.103 46.9286 34.0021C46.8844 33.6379 46.4638 32.8936 46.1159 32.5641C45.4804 31.9623 45.0488 31.7989 44.0943 31.7989H43.2542L38.9537 33.9301C34.6379 36.0689 33.9064 36.3737 32.4103 36.6576C31.1801 36.8909 31.2415 36.9195 31.1919 36.0904C31.1012 34.5729 30.0053 33.1591 28.4663 32.5744C28.1084 32.4383 26.8998 32.2639 24.0163 31.932C21.8389 31.6814 19.7641 31.4132 19.4056 31.336C18.6645 31.1767 17.8944 30.827 16.4626 29.9999C13.9184 28.5303 12.0779 28.0241 8.92714 27.9272L7.06825 27.8701V27.5137C7.06825 26.711 6.43789 25.8788 5.6533 25.6458C5.03624 25.4625 1.97454 25.4667 1.37464 25.6517ZM1.61873 27.0781L1.37685 27.2683V35.3653C1.37685 42.5451 1.393 43.4853 1.51978 43.6662C1.65949 43.8657 1.70429 43.8702 3.53407 43.8702C5.36386 43.8702 5.40866 43.8657 5.54837 43.6662C5.66734 43.4963 5.6913 43.1191 5.6913 41.413V39.3638L5.91666 39.1386C6.2038 38.8513 6.55575 38.8513 6.84289 39.1386C7.04622 39.3418 7.06825 39.4389 7.06825 40.1308V40.8979L11.1091 42.7069C13.3315 43.702 15.385 44.5773 15.6723 44.6522C15.9596 44.727 16.4588 44.7882 16.7816 44.7882C17.498 44.7882 32.3579 43.3543 33.0009 43.2232C33.2533 43.1717 33.6871 43.0357 33.9647 42.921C34.2424 42.8062 36.8958 41.1285 39.8611 39.1927C44.952 35.8693 45.2635 35.6505 45.449 35.2673C45.8014 34.5393 45.5063 33.6346 44.7966 33.2676C44.1443 32.9302 44.0031 32.982 39.5924 35.1738C34.1165 37.8949 33.5921 38.0588 29.5472 38.3144C19.4025 38.9556 19.9864 38.93 19.7362 38.7441C19.3738 38.4747 19.3722 37.8228 19.7336 37.6295C19.8319 37.5768 21.9691 37.4097 24.483 37.258C26.9968 37.1063 29.2292 36.9598 29.4437 36.9323L29.8339 36.8824V36.4454C29.8339 35.8018 29.5951 35.2101 29.1239 34.686C28.351 33.8264 28.2847 33.8087 23.917 33.3062C21.7943 33.0619 19.7952 32.8172 19.4748 32.7623C18.5674 32.6069 17.5077 32.1788 16.2046 31.4411C14.6097 30.5382 14.2347 30.3559 13.2828 30.0202C11.8771 29.5246 10.8821 29.3623 8.88124 29.3023L7.06825 29.248V32.9373V36.6266L6.84289 36.8519C6.71897 36.9758 6.51059 37.0773 6.37978 37.0773C6.24897 37.0773 6.04059 36.9758 5.91666 36.8519L5.6913 36.6266V31.9825V27.3384L5.46594 27.1132C5.24306 26.8902 5.22259 26.8878 3.5506 26.8878C1.97986 26.8878 1.84354 26.9012 1.61873 27.0781ZM0.0438651 35.379C0.0438651 39.9735 0.0550643 41.8396 0.068742 39.5259C0.0824198 37.2122 0.0824198 33.4531 0.068742 31.1723C0.0550643 28.8916 0.0438651 30.7846 0.0438651 35.379Z" fill="#0E384C"/>
<path fill-rule="evenodd" clip-rule="evenodd" d="M21.2049 2.47168C15.699 3.44638 11.3543 7.82747 10.4193 13.3478C10.3204 13.931 10.2652 14.7511 10.2677 15.5968C10.2739 17.7759 10.6487 19.3797 11.6118 21.3492C13.4445 25.0965 16.7661 27.6635 20.9295 28.55C21.718 28.718 22.1856 28.7552 23.4998 28.7552C25.2418 28.7552 26.3004 28.5938 27.7225 28.1111C32.3283 26.548 35.7232 22.5653 36.5891 17.7093C36.7825 16.6257 36.7787 14.5028 36.5816 13.3478C35.7535 8.49695 32.2705 4.4466 27.6181 2.92433C25.6775 2.28937 23.2161 2.11569 21.2049 2.47168ZM21.5204 3.80631C16.6364 4.62734 12.6619 8.577 11.7887 13.4772C11.5844 14.6237 11.603 16.6101 11.8288 17.754C12.7831 22.5881 16.3971 26.2021 21.2967 27.2217C22.3826 27.4477 24.6363 27.4488 25.7029 27.2239C29.5046 26.4222 32.5002 24.1245 34.2192 20.6915C34.5522 20.0265 34.9865 18.6872 35.1719 17.754C35.3987 16.6115 35.417 14.6283 35.2113 13.4772C34.5695 9.88584 32.2622 6.73619 29.0039 5.0039C28.0177 4.47955 26.5472 3.98669 25.4275 3.8053C24.3753 3.63474 22.5381 3.6352 21.5204 3.80631ZM21.8475 5.54761C20.5122 5.75718 18.3102 6.65468 17.8773 7.1658C17.5178 7.59009 17.8091 8.25305 18.3551 8.25305C18.5044 8.25305 18.8381 8.12829 19.0968 7.97582C23.0944 5.61866 28.3247 6.88463 30.8604 10.8234C32.5913 13.5119 32.6891 17.0376 31.1101 19.8241C30.6772 20.588 30.6611 20.939 31.0456 21.2249C31.2485 21.3756 31.3486 21.3935 31.5964 21.3232C31.8441 21.253 31.9706 21.1123 32.2907 20.5513C33.1567 19.0342 33.5975 17.3543 33.5975 15.5715C33.5975 12.8545 32.6674 10.5069 30.8207 8.56277C28.5106 6.13089 25.2059 5.02051 21.8475 5.54761ZM23.0408 8.80383C22.9019 8.94272 22.8572 9.10979 22.8572 9.49056C22.8572 9.9635 22.8421 9.99737 22.6048 10.0544C21.4754 10.3258 20.6589 11.3826 20.5818 12.6724C20.5099 13.8755 20.9673 14.5713 22.2929 15.2755L22.8113 15.5509L22.836 17.6054L22.8608 19.6599L22.4688 19.5975C22.2533 19.5632 21.8607 19.4132 21.5964 19.2642C21.3321 19.1152 21.0119 18.9933 20.885 18.9933C20.3373 18.9933 20.0761 19.7743 20.4935 20.1638C20.8199 20.4684 21.6191 20.8316 22.2407 20.958L22.8113 21.074L22.8388 21.5911C22.8615 22.0199 22.9067 22.14 23.1036 22.2948C23.4101 22.536 23.6161 22.5307 23.9145 22.274C24.1118 22.1042 24.1652 21.962 24.2078 21.4937C24.2488 21.0415 24.2918 20.921 24.4125 20.921C24.7399 20.921 25.5345 20.4253 25.9687 19.9502C26.5828 19.2783 26.8347 18.6161 26.8392 17.6622C26.8433 16.7904 26.651 16.2835 26.0821 15.6662C25.7243 15.2782 25.0027 14.8518 24.4829 14.7213L24.2342 14.6589V13.0166C24.2342 12.1132 24.2618 11.3741 24.2956 11.3741C24.3294 11.3741 24.5766 11.4981 24.845 11.6495C25.1134 11.801 25.4297 11.9249 25.5479 11.9249C25.8768 11.9249 26.1809 11.5467 26.1456 11.1815C26.1071 10.7853 25.526 10.3309 24.776 10.1104C24.2659 9.96047 24.2345 9.93476 24.2343 9.66663C24.2341 9.26355 24.0604 8.81558 23.8634 8.7101C23.5934 8.56561 23.2387 8.606 23.0408 8.80383ZM15.3224 9.56115C14.5832 10.5763 14.0298 11.751 13.6545 13.1011C13.4868 13.7046 13.4583 14.0527 13.4581 15.505C13.4578 17.0521 13.4792 17.2826 13.699 18.0942C14.1744 19.8493 15.0836 21.4118 16.3873 22.7134C19.6326 25.9539 24.7084 26.5898 28.6547 24.2505C29.8511 23.5412 30.1229 23.1578 29.7678 22.6801C29.4624 22.2691 29.1176 22.3071 28.3045 22.8409C26.2217 24.2082 23.7857 24.6126 21.3416 23.9969C18.3324 23.2387 16.0327 21.0049 15.0828 17.9176C14.8556 17.1792 14.8344 16.9803 14.8308 15.5509C14.8274 14.1933 14.8541 13.8961 15.0359 13.2656C15.302 12.3426 15.7501 11.3728 16.2517 10.6341C16.4836 10.2927 16.6456 9.94835 16.6456 9.79725C16.6456 9.41574 16.3773 9.17101 15.9588 9.17101C15.65 9.17101 15.5713 9.21921 15.3224 9.56115ZM22.4454 11.665C22.3063 11.7744 22.1354 12.0003 22.0659 12.1669C21.9182 12.5201 21.8998 13.1484 22.0299 13.3915C22.1135 13.5477 22.6655 13.9445 22.7992 13.9445C22.8312 13.9445 22.8572 13.3868 22.8572 12.7052C22.8572 12.0236 22.8215 11.4659 22.7778 11.4659C22.7341 11.4659 22.5846 11.5555 22.4454 11.665ZM24.2342 17.8512C24.2342 19.1875 24.259 19.5409 24.3489 19.49C25.0867 19.0731 25.4616 18.4753 25.4669 17.7078C25.4695 17.3374 25.4144 17.1119 25.2608 16.8632C25.0598 16.5381 24.5563 16.1476 24.3381 16.1476C24.2645 16.1476 24.2342 16.6443 24.2342 17.8512Z" fill="#1E84B5"/>
</g>
<defs>
<clipPath id="clip0_107_968">
<rect width="47" height="47" fill="white" transform="translate(0 0.725586)"/>
</clipPath>
</defs>
</svg>

<svg xmlns="http://www.w3.org/2000/svg" width="47" height="48" fill="none" viewBox="0 0 47 48"><g fill-rule="evenodd" clip-path="url(#a)" clip-rule="evenodd"><path fill="#0e384c" d="M21.205 2.472c-5.506.974-9.85 5.355-10.786 10.876-.099.583-.154 1.403-.151 2.249.006 2.179.38 3.783 1.344 5.752 1.833 3.747 5.154 6.314 9.318 7.201.788.168 1.256.205 2.57.205 1.742 0 2.8-.161 4.223-.644 4.605-1.563 8-5.546 8.866-10.402.194-1.083.19-3.206-.007-4.361-.828-4.851-4.311-8.901-8.964-10.424-1.94-.635-4.402-.808-6.413-.452m.316 1.334c-4.884.821-8.859 4.771-9.732 9.671-.204 1.147-.186 3.133.04 4.277.954 4.834 4.568 8.448 9.468 9.468 1.086.226 3.34.227 4.406.002 3.802-.802 6.797-3.1 8.516-6.532.333-.666.768-2.005.953-2.938.227-1.143.245-3.126.04-4.277-.642-3.591-2.95-6.74-6.208-8.473-.986-.524-2.457-1.017-3.576-1.199-1.053-.17-2.89-.17-3.908.001m.327 1.742c-1.336.21-3.538 1.107-3.97 1.618-.36.424-.069 1.087.477 1.087.15 0 .483-.125.742-.277 3.997-2.357 9.228-1.091 11.763 2.847 1.731 2.689 1.83 6.215.25 9.001-.433.764-.449 1.115-.064 1.4.203.152.303.17.55.1s.375-.212.695-.773a9.93 9.93 0 0 0 1.307-4.98c0-2.716-.93-5.064-2.777-7.008-2.31-2.432-5.615-3.542-8.973-3.015m1.193 3.256c-.139.139-.184.306-.184.687 0 .473-.015.506-.252.563-1.13.272-1.946 1.329-2.023 2.618-.072 1.204.385 1.9 1.711 2.603l.518.276.025 2.054.025 2.055-.392-.062c-.216-.035-.608-.185-.873-.334-.264-.149-.584-.27-.71-.27-.549 0-.81.78-.392 1.17.326.304 1.125.668 1.747.794l.57.116.028.517c.023.429.068.549.265.704.306.241.512.236.81-.021.198-.17.251-.312.294-.78.04-.453.084-.573.205-.573.327 0 1.122-.496 1.556-.97.614-.673.866-1.335.87-2.289.004-.872-.188-1.378-.757-1.996-.358-.388-1.08-.814-1.599-.945l-.249-.062v-1.642c0-.904.028-1.643.062-1.643s.28.124.55.275c.267.152.584.276.702.276.329 0 .633-.378.598-.744-.039-.396-.62-.85-1.37-1.07-.51-.15-.541-.176-.542-.444 0-.403-.174-.851-.37-.957-.27-.144-.625-.104-.823.094m-7.719.757c-.739 1.015-1.292 2.19-1.667 3.54-.168.604-.197.952-.197 2.404 0 1.547.021 1.778.241 2.59a10.26 10.26 0 0 0 2.688 4.618c3.246 3.24 8.322 3.877 12.268 1.537 1.196-.709 1.468-1.092 1.113-1.57-.306-.41-.65-.373-1.463.16-2.083 1.368-4.52 1.773-6.963 1.157-3.01-.758-5.31-2.992-6.26-6.08-.226-.738-.248-.937-.251-2.366-.003-1.358.023-1.655.205-2.285a9.7 9.7 0 0 1 1.216-2.632c.232-.341.394-.686.394-.837 0-.381-.269-.626-.687-.626-.309 0-.388.048-.637.39m7.124 2.104c-.14.11-.31.335-.38.502-.148.353-.166.981-.036 1.225.084.156.636.553.77.553.031 0 .057-.558.057-1.24s-.035-1.24-.08-1.24c-.043 0-.192.09-.332.2m1.788 6.186c0 1.337.025 1.69.115 1.639.738-.417 1.113-1.015 1.118-1.782.003-.37-.052-.596-.206-.845-.201-.325-.705-.715-.923-.715-.073 0-.104.496-.104 1.703m-22.86 7.8c-.49.152-.97.59-1.202 1.1-.159.346-.168.823-.17 8.582 0 5.456.031 8.332.095 8.563.12.434.559.94 1.015 1.173.315.16.551.178 2.375.178 2.205 0 2.456-.045 2.97-.532.407-.387.545-.74.603-1.542l.054-.742 3.878 1.734c4.075 1.822 4.577 1.996 5.789 1.999.368 0 3.24-.248 6.38-.553 11.104-1.078 10.529-1 11.721-1.606.329-.167 2.993-1.868 5.92-3.78 5.684-3.714 5.805-3.808 6.04-4.69.094-.348.12.278.16 3.845.032 2.954.047 1.699.047-4.093 0-5.173-.019-6.973-.05-4.727-.026 1.994-.058 3.543-.07 3.442-.045-.364-.465-1.108-.813-1.438-.636-.602-1.067-.765-2.022-.765h-.84l-4.3 2.131c-4.316 2.139-5.048 2.444-6.544 2.728-1.23.233-1.168.261-1.218-.568-.09-1.517-1.187-2.93-2.726-3.516-.358-.136-1.566-.31-4.45-.642-2.177-.25-4.252-.519-4.61-.596-.741-.16-1.512-.509-2.943-1.336-2.545-1.47-4.385-1.976-7.536-2.073l-1.859-.057v-.356c0-.803-.63-1.635-1.415-1.868-.617-.184-3.678-.18-4.278.006m.245 1.427-.242.19v8.097c0 7.18.016 8.12.143 8.301.14.2.184.204 2.014.204s1.875-.004 2.014-.204c.12-.17.143-.547.143-2.253v-2.05l.226-.224c.287-.288.639-.288.926 0 .203.203.225.3.225.992v.767l4.041 1.809c2.223.995 4.276 1.87 4.563 1.945a5.3 5.3 0 0 0 1.11.136c.716 0 15.576-1.434 16.219-1.565.252-.051.686-.187.964-.302s2.93-1.792 5.896-3.728c5.091-3.324 5.403-3.542 5.588-3.926.352-.728.057-1.632-.652-2-.653-.337-.794-.285-5.205 1.907-5.475 2.72-6 2.885-10.045 3.14-10.144.642-9.56.616-9.81.43-.363-.27-.365-.921-.003-1.114.098-.053 2.235-.22 4.749-.372s4.746-.298 4.96-.326l.39-.05v-.437c0-.643-.238-1.235-.71-1.759-.772-.86-.838-.877-5.206-1.38-2.123-.244-4.122-.489-4.442-.544-.908-.155-1.967-.583-3.27-1.32-1.595-.904-1.97-1.086-2.922-1.422-1.406-.495-2.4-.658-4.402-.718l-1.813-.054v7.379l-.225.225c-.124.124-.332.225-.463.225s-.34-.101-.463-.225l-.226-.225v-9.289l-.225-.225c-.223-.223-.243-.225-1.915-.225-1.571 0-1.707.013-1.932.19M.044 35.38c0 4.595.011 6.46.025 4.147.013-2.314.013-6.073 0-8.354-.014-2.28-.025-.387-.025 4.207"/><path fill="#1e84b5" d="M21.205 2.472c-5.506.974-9.85 5.355-10.786 10.876-.099.583-.154 1.403-.151 2.249.006 2.179.38 3.783 1.344 5.752 1.832 3.747 5.154 6.314 9.318 7.201.788.168 1.256.205 2.57.205 1.742 0 2.8-.161 4.223-.644 4.605-1.563 8-5.546 8.866-10.402.194-1.083.19-3.206-.007-4.361-.828-4.851-4.312-8.901-8.964-10.424-1.94-.635-4.402-.808-6.413-.452m.315 1.334c-4.884.821-8.858 4.771-9.731 9.671-.205 1.147-.186 3.133.04 4.277.954 4.834 4.568 8.448 9.468 9.468 1.086.226 3.34.227 4.406.002 3.802-.802 6.797-3.1 8.516-6.532.333-.666.767-2.005.953-2.938.227-1.143.245-3.126.04-4.277-.643-3.591-2.95-6.74-6.208-8.473-.986-.524-2.457-1.017-3.577-1.199-1.052-.17-2.889-.17-3.907.001m.328 1.742c-1.336.21-3.538 1.107-3.97 1.618-.36.424-.069 1.087.477 1.087.15 0 .483-.125.742-.277 3.997-2.357 9.228-1.091 11.763 2.847 1.731 2.689 1.83 6.215.25 9.001-.433.764-.449 1.115-.064 1.4.203.152.303.17.55.1s.375-.212.695-.773a9.93 9.93 0 0 0 1.306-4.98c0-2.716-.93-5.064-2.776-7.008-2.31-2.432-5.615-3.542-8.974-3.015m1.193 3.256c-.14.139-.184.306-.184.687 0 .473-.015.506-.252.563-1.13.272-1.946 1.329-2.023 2.618-.072 1.204.385 1.9 1.71 2.603l.52.276.024 2.054.025 2.055-.392-.062c-.216-.035-.608-.185-.873-.334-.264-.149-.584-.27-.711-.27-.548 0-.809.78-.392 1.17.327.304 1.126.668 1.748.794l.57.116.028.517c.023.429.068.549.265.704.306.241.512.236.81-.021.198-.17.251-.312.294-.78.04-.453.084-.573.205-.573.327 0 1.122-.496 1.556-.97.614-.673.866-1.335.87-2.289.004-.872-.188-1.378-.757-1.996-.358-.388-1.08-.814-1.6-.945l-.248-.062v-1.642c0-.904.028-1.643.062-1.643.033 0 .28.124.549.275.268.152.585.276.703.276.329 0 .633-.378.598-.744-.039-.396-.62-.85-1.37-1.07-.51-.15-.541-.176-.542-.444 0-.403-.174-.851-.37-.957-.27-.144-.625-.104-.823.094m-7.719.757c-.739 1.015-1.292 2.19-1.667 3.54-.168.604-.197.952-.197 2.404 0 1.547.021 1.778.241 2.59a10.26 10.26 0 0 0 2.688 4.618 10.115 10.115 0 0 0 12.268 1.537c1.196-.709 1.468-1.092 1.113-1.57-.306-.41-.65-.373-1.463.16-2.083 1.368-4.52 1.773-6.963 1.157-3.01-.758-5.31-2.992-6.26-6.08-.226-.738-.248-.937-.251-2.366-.004-1.358.023-1.655.205-2.285a9.7 9.7 0 0 1 1.216-2.632c.232-.341.394-.686.394-.837 0-.381-.269-.626-.687-.626-.309 0-.388.048-.637.39m7.123 2.104c-.139.11-.31.335-.38.502-.147.353-.165.981-.035 1.225.083.156.636.553.77.553.031 0 .057-.558.057-1.24s-.035-1.24-.08-1.24c-.043 0-.192.09-.332.2m1.79 6.186c0 1.337.024 1.69.114 1.639.738-.417 1.113-1.015 1.118-1.782.003-.37-.053-.596-.206-.845-.201-.325-.705-.715-.923-.715-.073 0-.104.496-.104 1.703"/></g><defs><clipPath id="a"><path fill="#fff" d="M0 .726h47v47H0z"/></clipPath></defs></svg>
